X: 0
T: The Bear In The Buckwheat
C: Trad
O: Scotland, Cape Breton
R: reel
M: 4/4
L: 1/8
K: Gmaj
|:"C"c2BA BGGB|"G"g2bg aAAB|"C"c2BA Bcde|1 dBAB "G"G3B:|2 dBAB "G"G2GE||
|:"G"DB,DB, G2GF|"C"ECEC E2GE|"G"DB,DB, D2GA|1 "C"BGAF "G"G2GE:|2 "C"BGAF "G"G4||
|:"C"c2BA BGGB|"G"g2bg aAAB|"C"c2BA Bcde|1 dBAB "G"G3B:|2 dBAB "G"G2Ge||
|:"G"dBdB d2gf|"C"ecec e2ge|"G"dBdB d2ga|1 "C"bgaf "G"g2ge:|2 "C"bgaf "G"g4||